;FLAVOR:RepRap
;TIME:1961
M190 S50.000000
M104 S210.000000
M109 S210.000000
G21 ;metric values
G90 ;absolute positioning
M82 ;set extruder to absolute mode
M107 ;start with the fan off
G28 X0 Y0 ;move X/Y to min endstops
G28 Z0 ;move Z to min endstops
G1 Z15.0 F9000 ;move the platform down 15mm
G92 E0 ;zero the extruded length
G1 F200 E3 ;extrude 3mm of feed stock
G92 E0 ;zero the extruded length again
G1 F9000
;Put printing message on LCD screen
M117 Printing...
;Generated with Cura_SteamEngine master
;LAYER_COUNT:99
;LAYER:0
M107
G1 F1500.000000 E-2.00000
G0 F7200.00000 X85.629 Y40.764 Z0.350
;TYPE:SKIRT
G1 F1500.000 E0.00000
G1 F1800.00000 X85.828 Y40.376 E0.02538
G1 X86.121 Y39.848 E0.06053
G1 X86.435 Y39.322 E0.09618
G1 X86.637 Y39.006 E0.11801
G1 X87.018 Y38.449 E0.15729
G1 X87.293 Y38.073 E0.18441
G1 X87.671 Y37.589 E0.22015
G1 X87.994 Y37.203 E0.24945
G1 X88.362 Y36.788 E0.28173
G1 X88.788 Y36.340 E0.31771
G1 X89.117 Y36.014 E0.34467
G1 X89.548 Y35.613 E0.37894
G1 X89.922 Y35.286 E0.40785
G1 X90.459 Y34.847 E0.44823
G1 X90.717 Y34.649 E0.46715
G1 X91.345 Y34.198 E0.51216
G1 X91.618 Y34.014 E0.53132
G1 X92.279 Y33.601 E0.57669
G1 X92.585 Y33.422 E0.59732
G1 X93.089 Y33.148 E0.63071
G1 X93.630 Y32.876 E0.66596
G1 X94.152 Y32.635 E0.69942
G1 X94.499 Y32.486 E0.72140
G1 X95.106 Y32.249 E0.75933
G1 X95.669 Y32.050 E0.79409
G1 X96.119 Y31.907 E0.82157
G1 X96.646 Y31.756 E0.85348
G1 X97.188 Y31.620 E0.88600
G1 X97.716 Y31.505 E0.91745
G1 X98.299 Y31.397 E0.95197
G1 X98.766 Y31.326 E0.97946
G1 X99.344 Y31.256 E1.01335
G1 X99.836 Y31.212 E1.04210
G1 X100.420 Y31.178 E1.07615
G1 X101.039 Y31.162 E1.11219
G1 X101.481 Y31.164 E1.13792
G1 X101.968 Y31.181 E1.16628
G1 X102.674 Y31.229 E1.20747
G1 X103.170 Y31.279 E1.23648
G1 X103.570 Y31.332 E1.25997
G1 X104.300 Y31.451 E1.30302
G1 X104.747 Y31.539 E1.32954
G1 X105.281 Y31.661 E1.36142
G1 X105.756 Y31.786 E1.39001
G1 X106.398 Y31.976 E1.42898
G1 X106.869 Y32.132 E1.45786
G1 X107.246 Y32.270 E1.48123
G1 X107.983 Y32.566 E1.52745
G1 X108.330 Y32.719 E1.54953
G1 X108.808 Y32.947 E1.58035
G1 X109.395 Y33.250 E1.61880
G1 X109.894 Y33.528 E1.65205
G1 X110.116 Y33.661 E1.66711
G1 X110.858 Y34.137 E1.71842
G1 X111.115 Y34.313 E1.73655
G1 X111.692 Y34.737 E1.77823
G1 X112.033 Y35.005 E1.80347
G1 X112.436 Y35.342 E1.83405
G1 X112.987 Y35.834 E1.87705
G1 X113.204 Y36.040 E1.89446
G1 X113.634 Y36.472 E1.92994
G1 X113.999 Y36.863 E1.96107
G1 X114.379 Y37.297 E1.99465
G1 X114.735 Y37.730 E2.02728
G1 X115.011 Y38.089 E2.05363
G1 X115.411 Y38.645 E2.09350
G1 X115.658 Y39.012 E2.11925
G1 X115.955 Y39.483 E2.15166
G1 X116.236 Y39.961 E2.18393
G1 X116.530 Y40.502 E2.21977
G1 X116.727 Y40.892 E2.24520
G1 X116.947 Y41.363 E2.27546
G1 X117.224 Y42.008 E2.31632
G1 X117.385 Y42.423 E2.34223
G1 X117.548 Y42.879 E2.37041
G1 X117.736 Y43.463 E2.40612
G1 X117.902 Y44.044 E2.44129
G1 X118.005 Y44.451 E2.46573
G1 X118.136 Y45.043 E2.50102
G1 X118.252 Y45.665 E2.53785
G1 X118.313 Y46.059 E2.56106
G1 X118.382 Y46.621 E2.59401
G1 X118.445 Y47.318 E2.63475
G1 X118.463 Y47.620 E2.65236
G1 X118.484 Y48.357 E2.69527
G1 X118.483 Y48.801 E2.72111
G1 X118.464 Y49.331 E2.75198
G1 X118.422 Y49.975 E2.78955
G1 X118.368 Y50.517 E2.82125
G1 X118.316 Y50.922 E2.84502
G1 X118.207 Y51.592 E2.88453
G1 X118.115 Y52.066 E2.91263
G1 X117.999 Y52.573 E2.94290
G1 X117.834 Y53.208 E2.98109
G1 X117.718 Y53.601 E3.00494
G1 X117.519 Y54.207 E3.04207
G1 X117.347 Y54.680 E3.07136
G1 X117.161 Y55.145 E3.10051
G1 X116.892 Y55.761 E3.13964
G1 X116.697 Y56.172 E3.16611
G1 X116.456 Y56.639 E3.19670
G1 X116.128 Y57.231 E3.23610
G1 X115.934 Y57.556 E3.25813
G1 X115.615 Y58.056 E3.29265
G1 X115.306 Y58.508 E3.32452
G1 X114.934 Y59.015 E3.36112
G1 X114.653 Y59.375 E3.38770
G1 X114.318 Y59.776 E3.41811
G1 X113.911 Y60.234 E3.45378
G1 X113.528 Y60.638 E3.48618
G1 X113.152 Y61.010 E3.51696
G1 X112.739 Y61.394 E3.54979
G1 X112.386 Y61.702 E3.57706
G1 X111.833 Y62.154 E3.61863
G1 X111.609 Y62.326 E3.63507
G1 X110.853 Y62.869 E3.68924
G1 X110.786 Y62.914 E3.69394
G1 X109.979 Y63.420 E3.74938
G1 X109.688 Y63.590 E3.76900
G1 X109.247 Y63.830 E3.79822
G1 X108.611 Y64.150 E3.83966
G1 X108.222 Y64.331 E3.86463
G1 X107.708 Y64.550 E3.89715
G1 X107.235 Y64.734 E3.92670
G1 X106.531 Y64.982 E3.97014
G1 X106.326 Y65.048 E3.98268
G1 X105.558 Y65.268 E4.02917
G1 X105.033 Y65.399 E4.06067
G1 X104.644 Y65.483 E4.08383
G1 X104.002 Y65.602 E4.12184
G1 X103.522 Y65.676 E4.15011
G1 X102.952 Y65.745 E4.18353
G1 X102.442 Y65.791 E4.21333
G1 X101.791 Y65.828 E4.25128
G1 X101.466 Y65.837 E4.27021
G1 X100.596 Y65.832 E4.32085
G1 X100.415 Y65.826 E4.33139
G1 X99.680 Y65.777 E4.37426
G1 X98.986 Y65.706 E4.41487
G1 X98.784 Y65.680 E4.42672
G1 X97.985 Y65.549 E4.47385
G1 X97.608 Y65.475 E4.49621
G1 X96.969 Y65.328 E4.53438
G1 X96.402 Y65.179 E4.56850
G1 X95.913 Y65.034 E4.59819
G1 X95.811 Y65.001 E4.60443
G1 X95.055 Y64.738 E4.65102
G1 X94.426 Y64.485 E4.69048
G1 X93.893 Y64.251 E4.72436
G1 X93.513 Y64.069 E4.74888
G1 X92.948 Y63.778 E4.78588
G1 X92.401 Y63.473 E4.82233
G1 X92.109 Y63.298 E4.84214
G1 X91.443 Y62.870 E4.88822
G1 X91.170 Y62.683 E4.90748
G1 X90.610 Y62.271 E4.94795
G1 X90.252 Y61.991 E4.97440
G1 X89.852 Y61.656 E5.00477
G1 X89.316 Y61.179 E5.04653
G1 X89.094 Y60.968 E5.06436
G1 X88.647 Y60.517 E5.10132
G1 X88.254 Y60.095 E5.13489
G1 X87.941 Y59.738 E5.16252
G1 X87.572 Y59.289 E5.19635
G1 X87.255 Y58.878 E5.22656
G1 X86.925 Y58.419 E5.25946
G1 X86.572 Y57.894 E5.29629
G1 X86.350 Y57.541 E5.32056
G1 X86.052 Y57.034 E5.35479
G1 X85.805 Y56.581 E5.38482
G1 X85.533 Y56.042 E5.41996
G1 X85.340 Y55.628 E5.44655
G1 X85.088 Y55.040 E5.48378
G1 X84.896 Y54.549 E5.51447
G1 X84.728 Y54.077 E5.54363
G1 X84.553 Y53.529 E5.57711
G1 X84.404 Y53.009 E5.60860
G1 X84.267 Y52.470 E5.64097
G1 X84.168 Y52.020 E5.66779
G1 X84.042 Y51.342 E5.70793
G1 X83.975 Y50.907 E5.73354
G1 X83.909 Y50.378 E5.76457
G1 X83.849 Y49.706 E5.80384
G1 X83.828 Y49.363 E5.82384
G1 X83.808 Y48.653 E5.86519
G1 X83.810 Y48.146 E5.89470
G1 X83.827 Y47.660 E5.92300
G1 X83.865 Y47.088 E5.95637
G1 X83.930 Y46.427 E5.99503
G1 X83.972 Y46.109 E6.01370
G1 X84.079 Y45.442 E6.05302
G1 X84.196 Y44.847 E6.08831
G1 X84.279 Y44.480 E6.11021
G1 X84.455 Y43.804 E6.15087
G1 X84.575 Y43.397 E6.17557
G1 X84.778 Y42.780 E6.21338
G1 X84.930 Y42.364 E6.23915
G1 X85.184 Y41.730 E6.27891
G1 X85.337 Y41.379 E6.30119
G1 X85.629 Y40.764 E6.34082
G0 F7200.00000 X85.994 Y40.928
G1 F1800.000 X86.165 Y40.595 E6.36261
G1 X86.487 Y40.013 E6.40132
G1 X86.757 Y39.561 E6.43197
G1 X86.951 Y39.257 E6.45296
G1 X87.368 Y38.646 E6.49602
G1 X87.634 Y38.283 E6.52221
G1 X87.919 Y37.919 E6.54912
G1 X88.360 Y37.390 E6.58920
G1 X88.585 Y37.137 E6.60891
G1 X89.080 Y36.614 E6.65083
G1 X89.474 Y36.224 E6.68309
G1 X89.737 Y35.979 E6.70401
G1 X90.183 Y35.589 E6.73850
G1 X90.706 Y35.161 E6.77783
G1 X90.996 Y34.939 E6.79909
G1 X91.487 Y34.586 E6.83429
G1 X91.875 Y34.325 E6.86151
G1 X92.473 Y33.951 E6.90256
G1 X92.756 Y33.785 E6.92166
G1 X93.314 Y33.482 E6.95862
G1 X93.747 Y33.264 E6.98683
G1 X94.347 Y32.986 E7.02532
G1 X94.584 Y32.884 E7.04034
G1 X95.365 Y32.579 E7.08914
G1 X95.709 Y32.458 E7.11037
G1 X96.253 Y32.284 E7.14361
G1 X96.718 Y32.151 E7.17176
G1 X97.317 Y32.001 E7.20770
G1 X97.766 Y31.903 E7.23445
G1 X98.328 Y31.798 E7.26773
G1 X98.857 Y31.718 E7.29887
G1 X99.355 Y31.657 E7.32807
G1 X99.902 Y31.608 E7.36004
G1 X100.377 Y31.580 E7.38774
G1 X101.083 Y31.561 E7.42884
G1 X101.387 Y31.563 E7.44654
G1 X102.055 Y31.587 E7.48544
G1 X102.608 Y31.624 E7.51770
G1 X103.086 Y31.672 E7.54567
G1 X103.545 Y31.732 E7.57261
G1 X104.143 Y31.829 E7.60787
G1 X104.741 Y31.947 E7.64335
G1 X105.183 Y32.049 E7.66975
G1 X105.617 Y32.162 E7.69585
G1 X106.289 Y32.361 E7.73665
G1 X106.693 Y32.495 E7.76142
G1 X107.129 Y32.654 E7.78843
G1 X107.850 Y32.944 E7.83367
G1 X108.129 Y33.067 E7.85142
G1 X108.650 Y33.314 E7.88498
G1 X109.161 Y33.578 E7.91845
G1 X109.658 Y33.855 E7.95157
G1 X110.008 Y34.064 E7.97530
G1 X110.552 Y34.413 E8.01292
G1 X110.876 Y34.636 E8.03581
G1 X111.509 Y35.101 E8.08153
G1 X111.724 Y35.270 E8.09745
G1 X112.218 Y35.683 E8.13492
G1 X112.698 Y36.111 E8.17236
G1 X112.891 Y36.293 E8.18780
G1 X113.377 Y36.782 E8.22792
G1 X113.665 Y37.090 E8.25247
G1 X114.108 Y37.595 E8.29157
G1 X114.386 Y37.934 E8.31709
G1 X114.696 Y38.336 E8.34663
G1 X115.081 Y38.871 E8.38500
G1 X115.331 Y39.241 E8.41099
G1 X115.595 Y39.660 E8.43982
G1 X115.881 Y40.147 E8.47269
G1 X116.158 Y40.655 E8.50637
G1 X116.387 Y41.108 E8.53591
G1 X116.589 Y41.541 E8.56372
G1 X116.821 Y42.081 E8.59793
G1 X117.022 Y42.593 E8.62995
G1 X117.170 Y43.009 E8.65565
G1 X117.365 Y43.618 E8.69287
G1 X117.509 Y44.118 E8.72315
G1 X117.624 Y44.573 E8.75047
G1 X117.730 Y45.053 E8.77908
G1 X117.859 Y45.741 E8.81982
G1 X117.919 Y46.136 E8.84308
G1 X117.984 Y46.661 E8.87387
G1 X118.040 Y47.271 E8.90952
G1 X118.067 Y47.718 E8.93559
G1 X118.084 Y48.321 E8.97070
G1 X118.083 Y48.745 E8.99538
G1 X118.061 Y49.386 E9.03271
G1 X118.024 Y49.933 E9.06462
G1 X117.980 Y50.386 E9.09111
G1 X117.919 Y50.859 E9.11887
G1 X117.807 Y51.553 E9.15979
G1 X117.732 Y51.940 E9.18273
G1 X117.595 Y52.544 E9.21878
G1 X117.472 Y53.017 E9.24723
G1 X117.329 Y53.503 E9.27671
G1 X117.136 Y54.092 E9.31279
G1 X116.972 Y54.540 E9.34056
G1 X116.790 Y54.997 E9.36919
G1 X116.564 Y55.514 E9.40203
G1 X116.298 Y56.073 E9.43807
G1 X116.124 Y56.413 E9.46030
G1 X115.810 Y56.978 E9.49792
G1 X115.542 Y57.429 E9.52846
G1 X115.332 Y57.757 E9.55112
G1 X114.932 Y58.343 E9.59242
G1 X114.634 Y58.749 E9.62173
G1 X114.356 Y59.104 E9.64798
G1 X114.001 Y59.531 E9.68030
G1 X113.623 Y59.958 E9.71349
G1 X113.284 Y60.315 E9.74215
G1 X112.848 Y60.747 E9.77787
G1 X112.454 Y61.113 E9.80917
G1 X112.148 Y61.380 E9.83281
G1 X111.593 Y61.834 E9.87455
G1 X111.277 Y62.076 E9.89771
G1 X110.794 Y62.424 E9.93236
G1 X110.493 Y62.627 E9.95350
G1 X109.793 Y63.066 E10.00159
G1 X109.453 Y63.264 E10.02449
G1 X109.142 Y63.433 E10.04509
G1 X108.384 Y63.815 E10.09450
G1 X108.039 Y63.975 E10.11663
G1 X107.616 Y64.155 E10.14339
G1 X107.101 Y64.357 E10.17559
G1 X106.362 Y64.618 E10.22121
G1 X106.288 Y64.642 E10.22573
G1 X105.345 Y64.911 E10.28281
G1 X105.048 Y64.985 E10.30063
G1 X104.536 Y65.096 E10.33112
G1 X103.940 Y65.207 E10.36641
G1 X103.412 Y65.288 E10.39750
G1 X103.065 Y65.330 E10.41784
G1 X102.265 Y65.402 E10.46460
G1 X101.864 Y65.425 E10.48797
G1 X101.406 Y65.437 E10.51464
G1 X100.736 Y65.435 E10.55364
G1 X100.310 Y65.419 E10.57845
G1 X99.717 Y65.379 E10.61305
G1 X99.109 Y65.318 E10.64861
G1 X98.793 Y65.276 E10.66717
G1 X98.133 Y65.169 E10.70608
G1 X97.586 Y65.061 E10.73854
G1 X97.130 Y64.957 E10.76576
G1 X96.507 Y64.793 E10.80326
G1 X96.053 Y64.658 E10.83083
G1 X95.923 Y64.617 E10.83876
G1 X95.234 Y64.377 E10.88123
G1 X94.521 Y64.091 E10.92594
G1 X94.101 Y63.906 E10.95265
G1 X93.655 Y63.694 E10.98140
G1 X93.133 Y63.425 E11.01558
G1 X92.669 Y63.166 E11.04651
G1 X92.263 Y62.924 E11.07402
G1 X91.688 Y62.554 E11.11382
G1 X91.430 Y62.377 E11.13203
G1 X90.799 Y61.913 E11.17762
G1 X90.606 Y61.762 E11.19188
G1 X90.044 Y61.293 E11.23449
G1 X89.645 Y60.936 E11.26565
G1 X89.367 Y60.673 E11.28792
G1 X88.901 Y60.204 E11.32640
G1 X88.603 Y59.884 E11.35186
G1 X88.209 Y59.435 E11.38663
G1 X87.905 Y59.065 E11.41450
G1 X87.610 Y58.684 E11.44254
G1 X87.204 Y58.121 E11.48295
G1 X86.958 Y57.755 E11.50861
G1 X86.676 Y57.306 E11.53948
G1 X86.389 Y56.818 E11.57243
G1 X86.161 Y56.401 E11.60009
G1 X85.929 Y55.942 E11.63003
G1 X85.652 Y55.349 E11.66812
G1 X85.502 Y54.998 E11.69034
G1 X85.277 Y54.424 E11.72622
G1 X85.115 Y53.968 E11.75439
G1 X84.909 Y53.326 E11.79363
G1 X84.804 Y52.962 E11.81568
G1 X84.657 Y52.379 E11.85068
G1 X84.567 Y51.971 E11.87500
G1 X84.436 Y51.271 E11.91645
G1 X84.370 Y50.848 E11.94137
G1 X84.307 Y50.332 E11.97163
G1 X84.255 Y49.767 E12.00465
G1 X84.225 Y49.265 E12.03392
G1 X84.207 Y48.636 E12.07055
G1 X84.209 Y48.255 E12.09272
G1 X84.231 Y47.609 E12.13035
G1 X84.264 Y47.115 E12.15916
G1 X84.320 Y46.546 E12.19244
G1 X84.370 Y46.158 E12.21521
G1 X84.479 Y45.484 E12.25495
G1 X84.578 Y44.977 E12.28502
G1 X84.681 Y44.522 E12.31217
G1 X84.821 Y43.982 E12.34464
G1 X84.976 Y43.454 E12.37667
G1 X85.149 Y42.931 E12.40874
G1 X85.298 Y42.519 E12.43424
G1 X85.549 Y41.893 E12.47349
G1 X85.702 Y41.543 E12.49573
G1 X85.994 Y40.928 E12.53535
G0 F7200.00000 X86.362 Y41.087
G1 F1800.000 X86.519 Y40.781 E12.55537
G1 X86.829 Y40.221 E12.59263
G1 X87.063 Y39.829 E12.61920
G1 X87.362 Y39.361 E12.65153
G1 X87.630 Y38.970 E12.67912
G1 X87.960 Y38.518 E12.71169
G1 X88.250 Y38.147 E12.73910
G1 X88.657 Y37.658 E12.77613
G1 X88.881 Y37.406 E12.79575
G1 X89.356 Y36.903 E12.83602
G1 X89.721 Y36.543 E12.86586
G1 X90.029 Y36.256 E12.89037
G1 X90.440 Y35.896 E12.92217
G1 X90.958 Y35.472 E12.96113
G1 X91.231 Y35.263 E12.98114
G1 X91.758 Y34.885 E13.01889
G1 X92.055 Y34.684 E13.03977
G1 X92.609 Y34.336 E13.07785
G1 X93.066 Y34.070 E13.10862
G1 X93.369 Y33.905 E13.12870
G1 X93.994 Y33.589 E13.16947
G1 X94.456 Y33.375 E13.19910
G1 X94.805 Y33.226 E13.22119
G1 X95.437 Y32.979 E13.26069
G1 X95.910 Y32.812 E13.28988
G1 X96.293 Y32.689 E13.31330
G1 X96.829 Y32.536 E13.34574
G1 X97.381 Y32.397 E13.37887
G1 X97.917 Y32.281 E13.41079
G1 X98.334 Y32.203 E13.43549
G1 X98.885 Y32.118 E13.46794
G1 X99.495 Y32.044 E13.50370
G1 X99.826 Y32.014 E13.52305
G1 X100.480 Y31.975 E13.56118
G1 X100.931 Y31.963 E13.58744
G1 X101.545 Y31.966 E13.62318
G1 X101.982 Y31.982 E13.64863
G1 X102.497 Y32.017 E13.67868
G1 X103.101 Y32.077 E13.71401
G1 X103.474 Y32.125 E13.73590
G1 X104.120 Y32.230 E13.77399
G1 X104.521 Y32.309 E13.79778
G1 X105.124 Y32.447 E13.83378
G1 X105.537 Y32.555 E13.85863
G1 X106.143 Y32.734 E13.89541
G1 X106.590 Y32.882 E13.92282
G1 X106.948 Y33.013 E13.94501
G1 X107.675 Y33.305 E13.99061
G1 X107.987 Y33.442 E14.01044
G1 X108.485 Y33.679 E14.04254
G1 X108.924 Y33.905 E14.07128
G1 X109.482 Y34.216 E14.10846
G1 X109.817 Y34.416 E14.13117
G1 X110.345 Y34.754 E14.16766
G1 X110.609 Y34.936 E14.18633
G1 X111.174 Y35.350 E14.22710
G1 X111.577 Y35.666 E14.25690
G1 X111.926 Y35.958 E14.28339
G1 X112.370 Y36.353 E14.31798
G1 X112.672 Y36.639 E14.34219
G1 X113.091 Y37.061 E14.37680
G1 X113.328 Y37.314 E14.39698
G1 X113.812 Y37.865 E14.43967
G1 X114.053 Y38.159 E14.46179
G1 X114.429 Y38.646 E14.49761
G1 X114.659 Y38.965 E14.52050
G1 X115.051 Y39.546 E14.56129
G1 X115.249 Y39.860 E14.58290
G1 X115.544 Y40.363 E14.61684
G1 X115.785 Y40.803 E14.64604
G1 X116.024 Y41.275 E14.67683
G1 X116.225 Y41.707 E14.70457
G1 X116.435 Y42.194 E14.73543
G1 X116.680 Y42.823 E14.77472
G1 X116.778 Y43.096 E14.79161
G1 X116.984 Y43.737 E14.83080
G1 X117.083 Y44.080 E14.85158
G1 X117.259 Y44.776 E14.89336
G1 X117.342 Y45.154 E14.91589
G1 X117.456 Y45.759 E14.95172
G1 X117.516 Y46.146 E14.97452
G1 X117.597 Y46.798 E15.01276
G1 X117.640 Y47.275 E15.04063
G1 X117.665 Y47.682 E15.06437
G1 X117.684 Y48.331 E15.10216
G1 X117.682 Y48.780 E15.12829
G1 X117.663 Y49.357 E15.16190
G1 X117.634 Y49.797 E15.18756
G1 X117.573 Y50.417 E15.22382
G1 X117.509 Y50.907 E15.25259
G1 X117.445 Y51.307 E15.27616
G1 X117.327 Y51.917 E15.31233
G1 X117.220 Y52.390 E15.34055
G1 X117.057 Y53.016 E15.37821
G1 X116.960 Y53.346 E15.39823
G1 X116.788 Y53.872 E15.43044
G1 X116.579 Y54.445 E15.46594
G1 X116.427 Y54.828 E15.48992
G1 X116.187 Y55.379 E15.52490
G1 X115.983 Y55.809 E15.55261
G1 X115.716 Y56.327 E15.58653
G1 X115.502 Y56.714 E15.61227
G1 X115.237 Y57.159 E15.64241
G1 X114.929 Y57.641 E15.67571
G1 X114.652 Y58.047 E15.70431
G1 X114.308 Y58.516 E15.73817
G1 X114.049 Y58.849 E15.76272
G1 X113.673 Y59.299 E15.79685
G1 X113.369 Y59.642 E15.82353
G1 X112.984 Y60.049 E15.85614
G1 X112.580 Y60.450 E15.88927
G1 X112.203 Y60.800 E15.91921
G1 X111.885 Y61.078 E15.94380
G1 X111.349 Y61.517 E15.98413
G1 X111.029 Y61.763 E16.00762
G1 X110.583 Y62.084 E16.03960
G1 X110.260 Y62.301 E16.06225
G1 X109.631 Y62.697 E16.10551
G1 X109.220 Y62.936 E16.13319
G1 X108.970 Y63.072 E16.14975
G1 X108.211 Y63.454 E16.19921
G1 X107.905 Y63.596 E16.21885
G1 X107.452 Y63.790 E16.24753
G1 X106.982 Y63.974 E16.27691
G1 X106.202 Y64.250 E16.32506
G1 X105.234 Y64.526 E16.38365
G1 X105.007 Y64.583 E16.39728
